images_elementary_svg/cmd/32/hu/underlinedouble.svg

<svg height="32" width="32" xmlns="http://www.w3.org/2000/svg" xmlns:xlink="http://www.w3.org/1999/xlink"><radialGradient id="a" cx="10.903473" cy="14.502974" gradientTransform="matrix(-1.2275636 .08092708 -.11130985 -2.3775408 26.999101 45.263985)" gradientUnits="userSpaceOnUse" r="6.225339" xlink:href="#c"/><linearGradient id="b" gradientUnits="userSpaceOnUse" x1="12.761326" x2="12.761326" xlink:href="#c" y1="33.638302" y2="11.638302"/><linearGradient id="c"><stop offset="0" stop-color="#555"/><stop offset="1" stop-color="#666"/></linearGradient><g transform="matrix(1.33333 0 0 1.33333 .163341 -11.350962)"><path d="m15.777819 29.937737-1.775867-5.027926h-6.0490495l-1.798066 5.027926h-2.0866445l5.960256-16.293586h1.886859l5.971355 16.293586zm-2.430719-6.859289-1.642677-4.70605q-.06659-.199785-.166488-.488363-.08879-.288579-.188686-.621554-.09989-.332975-.199785-.688148-.09989-.366273-.188686-.710348-.07769.344075-.177586.710348-.09989.366272-.199786.710347-.09989.332975-.199785.621553-.08879.27748-.155388.466165l-1.6093802 4.70605z" fill="url(#a)" stroke="#000" stroke-opacity=".6" stroke-width=".754844" transform="matrix(1.0819954 0 0 .92421839 0 -3.748112)"/><path d="m1.752716 29.885566.017578 2.234376h19.504467l-.01758-2.234376z" fill="url(#b)"/><path d="m1.752716 29.885566.00414 2.252736h19.50447l-.0041-2.252736z" fill="none" opacity=".61" stroke="#000" stroke-width=".750002"/><path d="m2.1302176 30.242557-.00272.769013h18.7500494l-.01548-.759479z" fill="#fff" opacity=".2"/><path d="m10.850666 8.8623091-6.4482584 15.0586319h.4819348l5.9663236-13.9336291h2.041998l5.978042 13.9336291h.481935l-6.459977-15.0586319zm-1.073733 8.7187719-.4511734 1.125003h5.1152474l-.459962-1.125003z" fill="#fff" opacity=".2"/><g transform="translate(.015479 -4.488805)"><path d="m1.752716 29.885566.017578 2.234376h19.504467l-.01758-2.234376z" fill="url(#b)"/><path d="m1.752716 29.885566.00414 2.252736h19.50447l-.0041-2.252736z" fill="none" opacity=".61" stroke="#000" stroke-width=".750002"/><path d="m2.1302176 30.242557-.00272.769013h18.7500494l-.01548-.759479z" fill="#fff" opacity=".2"/></g></g></svg>

<?xml version="1.0" encoding="UTF-8" standalone="no"?>
<svg
   xmlns:dc="http://purl.org/dc/elements/1.1/"
   xmlns:cc="http://creativecommons.org/ns#"
   xmlns:rdf="http://www.w3.org/1999/02/22-rdf-syntax-ns#"
   xmlns:svg="http://www.w3.org/2000/svg"
   xmlns="http://www.w3.org/2000/svg"
   xmlns:xlink="http://www.w3.org/1999/xlink"
   xmlns:sodipodi="http://sodipodi.sourceforge.net/DTD/sodipodi-0.dtd"
   xmlns:inkscape="http://www.inkscape.org/namespaces/inkscape"
   height="32"
   width="32"
   version="1.1"
   id="svg43"
   sodipodi:docname="underlinedouble.svg"
   inkscape:version="0.92.4 (unknown)"
   inkscape:export-filename="/home/rizmut/Dokumen/Rizmut/Github/libreoffice-style-elementary/images_elementary/cmd/32/hu/underlinedouble.png"
   inkscape:export-xdpi="96"
   inkscape:export-ydpi="96">
  <metadata
     id="metadata49">
    <rdf:RDF>
      <cc:Work
         rdf:about="">
        <dc:format>image/svg+xml</dc:format>
        <dc:type
           rdf:resource="http://purl.org/dc/dcmitype/StillImage" />
        <dc:title></dc:title>
      </cc:Work>
    </rdf:RDF>
  </metadata>
  <defs
     id="defs47">
    <radialGradient
       inkscape:collect="always"
       xlink:href="#a"
       id="radialGradient844"
       cx="10.903473"
       cy="14.502974"
       fx="10.903473"
       fy="14.502974"
       r="6.2253389"
       gradientTransform="matrix(-1.2275636,0.08092708,-0.11130985,-2.3775408,26.999101,45.263985)"
       gradientUnits="userSpaceOnUse" />
    <radialGradient
       inkscape:collect="always"
       xlink:href="#a"
       id="radialGradient840"
       gradientUnits="userSpaceOnUse"
       gradientTransform="matrix(-1.2275636,0.08092708,-0.11130985,-2.3775408,26.999101,45.263985)"
       cx="10.903473"
       cy="14.502974"
       fx="10.903473"
       fy="14.502974"
       r="6.2253389" />
    <linearGradient
       inkscape:collect="always"
       xlink:href="#a"
       id="linearGradient855"
       gradientUnits="userSpaceOnUse"
       x1="12.761326"
       y1="33.638302"
       x2="12.761326"
       y2="11.638302" />
  </defs>
  <sodipodi:namedview
     pagecolor="#ffffff"
     bordercolor="#666666"
     borderopacity="1"
     objecttolerance="10"
     gridtolerance="10"
     guidetolerance="10"
     inkscape:pageopacity="0"
     inkscape:pageshadow="2"
     inkscape:window-width="1366"
     inkscape:window-height="714"
     id="namedview45"
     showgrid="true"
     inkscape:zoom="14.75"
     inkscape:cx="6.5632881"
     inkscape:cy="12.175549"
     inkscape:window-x="0"
     inkscape:window-y="28"
     inkscape:window-maximized="1"
     inkscape:current-layer="g41">
    <inkscape:grid
       type="xygrid"
       id="grid832" />
  </sodipodi:namedview>
  <linearGradient
     id="a">
    <stop
       offset="0"
       stop-color="#555"
       id="stop2" />
    <stop
       offset="1"
       stop-color="#666"
       id="stop4" />
  </linearGradient>
  <linearGradient
     id="b"
     gradientUnits="userSpaceOnUse"
     x1="12.761326"
     x2="12.761326"
     xlink:href="#a"
     y1="33.638302"
     y2="11.638302" />
  <linearGradient
     id="c">
    <stop
       offset="0"
       id="stop8" />
    <stop
       offset="1"
       stop-opacity="0"
       id="stop10" />
  </linearGradient>
  <radialGradient
     id="d"
     cx="40"
     cy="43.5"
     gradientTransform="matrix(.87733142 0 0 .75 -17.142285 -3.625)"
     gradientUnits="userSpaceOnUse"
     r="2"
     xlink:href="#c" />
  <radialGradient
     id="e"
     cx="9"
     cy="43.5"
     gradientTransform="matrix(.87733142 0 0 .75 -1.350319 -3.625)"
     gradientUnits="userSpaceOnUse"
     r="2"
     xlink:href="#c" />
  <linearGradient
     id="f"
     gradientTransform="matrix(.87733142 0 0 1 -5.736976 -14.5)"
     gradientUnits="userSpaceOnUse"
     x1="25"
     x2="25"
     y1="45"
     y2="42">
    <stop
       offset="0"
       stop-opacity="0"
       id="stop15" />
    <stop
       offset=".5"
       id="stop17" />
    <stop
       offset="1"
       stop-opacity="0"
       id="stop19" />
  </linearGradient>
  <linearGradient
     id="g"
     gradientTransform="matrix(.98244026 0 0 1.0032268 .121605 8.047357)"
     gradientUnits="userSpaceOnUse"
     x1="12.02772"
     x2="11.427851"
     xlink:href="#a"
     y1="25.544678"
     y2="4.392136" />
  <g
     transform="matrix(1.33333 0 0 1.33333 .163341 -11.350962)"
     id="g41">
    <g
       aria-label="A"
       transform="matrix(1.0819954,0,0,0.92421839,0,-3.748112)"
       style="font-style:normal;font-weight:normal;font-size:22.7311058px;line-height:1.25;font-family:sans-serif;letter-spacing:0px;word-spacing:0px;fill:url(#radialGradient844);fill-opacity:1;stroke:#000000;stroke-width:0.75484437;stroke-miterlimit:4;stroke-dasharray:none;stroke-opacity:0.6"
       id="text836">
      <path
         d="M 15.777819,29.937737 14.001952,24.909811 H 7.9529025 l -1.798066,5.027926 H 4.068192 l 5.960256,-16.293586 h 1.886859 l 5.971355,16.293586 z M 13.3471,23.078448 11.704423,18.372398 q -0.06659,-0.199785 -0.166488,-0.488363 -0.08879,-0.288579 -0.188686,-0.621554 -0.09989,-0.332975 -0.199785,-0.688148 -0.09989,-0.366273 -0.188686,-0.710348 -0.07769,0.344075 -0.177586,0.710348 -0.09989,0.366272 -0.199786,0.710347 -0.09989,0.332975 -0.199785,0.621553 -0.08879,0.27748 -0.155388,0.466165 l -1.6093802,4.70605 z"
         style="font-style:normal;font-variant:normal;font-weight:normal;font-stretch:normal;font-family:'Droid Sans';-inkscape-font-specification:'Droid Sans';fill:url(#radialGradient840);fill-opacity:1;stroke:#000000;stroke-width:0.75484437;stroke-miterlimit:4;stroke-dasharray:none;stroke-opacity:0.6"
         id="path837"
         inkscape:connector-curvature="0" />
    </g>
    <g
       id="g845">
      <path
         id="path25"
         fill="url(#b)"
         d="m1.752716 29.885566.017578 2.234376h19.504467l-.01758-2.234376z" />
      <path
         id="path27"
         stroke-width=".750002"
         stroke="#000"
         opacity=".61"
         fill="none"
         d="m1.752716 29.885566.00414 2.252736h19.50447l-.0041-2.252736z" />
      <path
         id="path29"
         opacity=".2"
         fill="#fff"
         d="m2.1302176 30.242557-.00272.769013h18.7500494l-.01548-.759479z" />
    </g>
    <path
       style="font-style:normal;font-weight:normal;font-size:22.7311058px;line-height:1.25;font-family:sans-serif;letter-spacing:0px;word-spacing:0px;opacity:0.2;fill:#ffffff;fill-opacity:1;stroke:none;stroke-width:0.75484437;stroke-miterlimit:4;stroke-dasharray:none;stroke-opacity:0.6"
       d="M 10.850666,8.8623091 4.4024076,23.920941 H 4.8843424 L 10.850666,9.9873119 h 2.041998 l 5.978042,13.9336291 h 0.481935 L 12.892664,8.8623091 Z M 9.776933,17.581081 9.3257596,18.706084 h 5.1152474 l -0.459962,-1.125003 z"
       id="text880"
       inkscape:connector-curvature="0" />
    <g
       id="g853"
       transform="translate(0.01547944,-4.4888051)">
      <path
         d="m 1.752716,29.885566 0.017578,2.234376 h 19.504467 l -0.01758,-2.234376 z"
         id="path847"
         style="fill:url(#linearGradient855)"
         inkscape:connector-curvature="0" />
      <path
         d="m 1.752716,29.885566 0.00414,2.252736 h 19.50447 l -0.0041,-2.252736 z"
         id="path849"
         inkscape:connector-curvature="0"
         style="opacity:0.61000001;fill:none;stroke:#000000;stroke-width:0.75000203" />
      <path
         d="m 2.1302176,30.242557 -0.00272,0.769013 H 20.877547 l -0.01548,-0.759479 z"
         id="path851"
         inkscape:connector-curvature="0"
         style="opacity:0.2;fill:#ffffff" />
    </g>
  </g>
</svg>
